icons/modern/thong-sandal.svg

<svg width="32" height="32" viewBox="0 0 32 32" fill="none" xmlns="http://www.w3.org/2000/svg">
<g filter="url(#filter0_iii_18_17185)">
<path fill-rule="evenodd" clip-rule="evenodd" d="M12.0755 2.68747C15.7162 0.992187 19.6849 2.85935 21.7162 6.40623C22.5756 7.73436 24.4506 14.4945 24.4506 22.9062C24.4506 26.7722 21.3166 29.9062 17.4506 29.9062C13.5846 29.9062 10.4506 26.7722 10.4506 22.9062C10.4506 19.8239 10.4325 19.0706 10.0599 17.5468C9.67986 15.9927 8.42707 13.5312 8.06772 12.1875C6.73181 8.15622 7.94825 4.40069 12.0755 2.68747Z" fill="url(#paint0_linear_18_17185)"/>
</g>
<g filter="url(#filter1_f_18_17185)">
<path d="M14.0035 7.04115C13.785 6.56838 13.2396 6.36957 12.7854 6.59709C12.3312 6.82461 12.1402 7.39231 12.3588 7.86508L13.0839 9.43352C13.1769 9.6347 13.1292 9.87502 12.9747 10.0298C11.1358 11.8718 10.7303 13.9996 10.6692 16.125C10.5996 18.5416 11.05 20.9304 11.7503 22.3799C11.9767 22.8487 12.5254 23.0376 12.9757 22.8018C13.426 22.5661 13.6075 21.9951 13.381 21.5263C12.7754 20.2727 12.159 18.3169 12.217 16.2999C12.2675 14.5453 12.881 12.7734 14.4262 11.3031C14.6396 11.1 14.9381 11.0225 15.214 11.1123C16.1639 11.4214 17.3395 12.1193 18.3509 13.3439C19.6357 14.8996 20.5975 17.3071 20.1569 20.8305C20.0918 21.3508 20.4443 21.8275 20.9441 21.8952C21.444 21.9629 21.9019 21.596 21.967 21.0757C22.4721 17.0367 21.3699 14.0848 19.735 12.1053C18.4425 10.5403 16.7181 9.50787 15.4177 9.14178C15.1113 9.05555 14.8402 8.85319 14.7028 8.55547L14.0035 7.04115Z" fill="url(#paint1_radial_18_17185)"/>
<path d="M14.0035 7.04115C13.785 6.56838 13.2396 6.36957 12.7854 6.59709C12.3312 6.82461 12.1402 7.39231 12.3588 7.86508L13.0839 9.43352C13.1769 9.6347 13.1292 9.87502 12.9747 10.0298C11.1358 11.8718 10.7303 13.9996 10.6692 16.125C10.5996 18.5416 11.05 20.9304 11.7503 22.3799C11.9767 22.8487 12.5254 23.0376 12.9757 22.8018C13.426 22.5661 13.6075 21.9951 13.381 21.5263C12.7754 20.2727 12.159 18.3169 12.217 16.2999C12.2675 14.5453 12.881 12.7734 14.4262 11.3031C14.6396 11.1 14.9381 11.0225 15.214 11.1123C16.1639 11.4214 17.3395 12.1193 18.3509 13.3439C19.6357 14.8996 20.5975 17.3071 20.1569 20.8305C20.0918 21.3508 20.4443 21.8275 20.9441 21.8952C21.444 21.9629 21.9019 21.596 21.967 21.0757C22.4721 17.0367 21.3699 14.0848 19.735 12.1053C18.4425 10.5403 16.7181 9.50787 15.4177 9.14178C15.1113 9.05555 14.8402 8.85319 14.7028 8.55547L14.0035 7.04115Z" fill="url(#paint2_radial_18_17185)"/>
<path d="M14.0035 7.04115C13.785 6.56838 13.2396 6.36957 12.7854 6.59709C12.3312 6.82461 12.1402 7.39231 12.3588 7.86508L13.0839 9.43352C13.1769 9.6347 13.1292 9.87502 12.9747 10.0298C11.1358 11.8718 10.7303 13.9996 10.6692 16.125C10.5996 18.5416 11.05 20.9304 11.7503 22.3799C11.9767 22.8487 12.5254 23.0376 12.9757 22.8018C13.426 22.5661 13.6075 21.9951 13.381 21.5263C12.7754 20.2727 12.159 18.3169 12.217 16.2999C12.2675 14.5453 12.881 12.7734 14.4262 11.3031C14.6396 11.1 14.9381 11.0225 15.214 11.1123C16.1639 11.4214 17.3395 12.1193 18.3509 13.3439C19.6357 14.8996 20.5975 17.3071 20.1569 20.8305C20.0918 21.3508 20.4443 21.8275 20.9441 21.8952C21.444 21.9629 21.9019 21.596 21.967 21.0757C22.4721 17.0367 21.3699 14.0848 19.735 12.1053C18.4425 10.5403 16.7181 9.50787 15.4177 9.14178C15.1113 9.05555 14.8402 8.85319 14.7028 8.55547L14.0035 7.04115Z" fill="url(#paint3_radial_18_17185)"/>
</g>
<g filter="url(#filter2_i_18_17185)">
<path d="M14.3378 6.47865C14.1103 6.00588 13.5426 5.80707 13.0698 6.03459C12.597 6.26211 12.3982 6.82981 12.6257 7.30258L13.3805 8.87102C13.4773 9.0722 13.4277 9.31252 13.2668 9.46734C11.3527 11.3093 10.6427 13.5551 10.579 15.6805C10.5066 18.0972 11.2634 20.3679 11.9923 21.8174C12.2281 22.2862 12.7991 22.4751 13.2679 22.2393C13.7366 22.0036 13.9255 21.4326 13.6898 20.9638C13.0594 19.7102 12.4178 17.7544 12.4782 15.7374C12.5307 13.9828 13.1693 12.2109 14.7777 10.7406C14.9999 10.5375 15.3105 10.46 15.5978 10.5498C16.5865 10.8589 17.8102 11.5568 18.8629 12.7814C20.2003 14.3371 21.2014 16.7446 20.7428 20.268C20.6751 20.7883 21.042 21.265 21.5622 21.3327C22.0825 21.4004 22.5592 21.0335 22.6269 20.5132C23.1527 16.4742 22.0054 13.5223 20.3037 11.5428C18.9583 9.9778 17.1634 8.94537 15.8097 8.57928C15.4909 8.49305 15.2087 8.29069 15.0656 7.99297L14.3378 6.47865Z" fill="#FCCB47"/>
</g>
<g filter="url(#filter3_f_18_17185)">
<path d="M13.7629 6.9375L14.6944 8.69968C14.8365 8.96848 15.0929 9.1539 15.387 9.23077C18.4914 10.042 22.7233 13.2835 21.9504 20.0312" stroke="url(#paint4_radial_18_17185)" stroke-width="0.75" stroke-linecap="round"/>
</g>
<defs>
<filter id="filter0_iii_18_17185" x="7.04956" y="1.55431" width="17.9009" height="28.8519" filterUnits="userSpaceOnUse" color-interpolation-filters="sRGB">
<feFlood flood-opacity="0" result="BackgroundImageFix"/>
<feBlend mode="normal" in="SourceGraphic" in2="BackgroundImageFix" result="shape"/>
<feColorMatrix in="SourceAlpha" type="matrix" values="0 0 0 0 0 0 0 0 0 0 0 0 0 0 0 0 0 0 127 0" result="hardAlpha"/>
<feOffset dx="0.5" dy="-0.5"/>
<feGaussianBlur stdDeviation="0.5"/>
<feComposite in2="hardAlpha" operator="arithmetic" k2="-1" k3="1"/>
<feColorMatrix type="matrix" values="0 0 0 0 0.352941 0 0 0 0 0.301961 0 0 0 0 1 0 0 0 1 0"/>
<feBlend mode="normal" in2="shape" result="effect1_innerShadow_18_17185"/>
<feColorMatrix in="SourceAlpha" type="matrix" values="0 0 0 0 0 0 0 0 0 0 0 0 0 0 0 0 0 0 127 0" result="hardAlpha"/>
<feOffset dx="0.5" dy="0.5"/>
<feGaussianBlur stdDeviation="0.5"/>
<feComposite in2="hardAlpha" operator="arithmetic" k2="-1" k3="1"/>
<feColorMatrix type="matrix" values="0 0 0 0 0.286275 0 0 0 0 0.403922 0 0 0 0 0.764706 0 0 0 1 0"/>
<feBlend mode="normal" in2="effect1_innerShadow_18_17185" result="effect2_innerShadow_18_17185"/>
<feColorMatrix in="SourceAlpha" type="matrix" values="0 0 0 0 0 0 0 0 0 0 0 0 0 0 0 0 0 0 127 0" result="hardAlpha"/>
<feOffset dx="-0.5" dy="0.5"/>
<feGaussianBlur stdDeviation="0.375"/>
<feComposite in2="hardAlpha" operator="arithmetic" k2="-1" k3="1"/>
<feColorMatrix type="matrix" values="0 0 0 0 0.423529 0 0 0 0 0.717647 0 0 0 0 1 0 0 0 1 0"/>
<feBlend mode="normal" in2="effect2_innerShadow_18_17185" result="effect3_innerShadow_18_17185"/>
</filter>
<filter id="filter1_f_18_17185" x="9.66211" y="5.5029" width="13.4285" height="18.4004" filterUnits="userSpaceOnUse" color-interpolation-filters="sRGB">
<feFlood flood-opacity="0" result="BackgroundImageFix"/>
<feBlend mode="normal" in="SourceGraphic" in2="BackgroundImageFix" result="shape"/>
<feGaussianBlur stdDeviation="0.5" result="effect1_foregroundBlur_18_17185"/>
</filter>
<filter id="filter2_i_18_17185" x="10.5742" y="5.5404" width="12.5814" height="16.8004" filterUnits="userSpaceOnUse" color-interpolation-filters="sRGB">
<feFlood flood-opacity="0" result="BackgroundImageFix"/>
<feBlend mode="normal" in="SourceGraphic" in2="BackgroundImageFix" result="shape"/>
<feColorMatrix in="SourceAlpha" type="matrix" values="0 0 0 0 0 0 0 0 0 0 0 0 0 0 0 0 0 0 127 0" result="hardAlpha"/>
<feOffset dx="0.4" dy="-0.4"/>
<feGaussianBlur stdDeviation="0.5"/>
<feComposite in2="hardAlpha" operator="arithmetic" k2="-1" k3="1"/>
<feColorMatrix type="matrix" values="0 0 0 0 0.941176 0 0 0 0 0.556863 0 0 0 0 0.341176 0 0 0 1 0"/>
<feBlend mode="normal" in2="shape" result="effect1_innerShadow_18_17185"/>
</filter>
<filter id="filter3_f_18_17185" x="12.8879" y="6.06242" width="10.03" height="14.8439" filterUnits="userSpaceOnUse" color-interpolation-filters="sRGB">
<feFlood flood-opacity="0" result="BackgroundImageFix"/>
<feBlend mode="normal" in="SourceGraphic" in2="BackgroundImageFix" result="shape"/>
<feGaussianBlur stdDeviation="0.25" result="effect1_foregroundBlur_18_17185"/>
</filter>
<linearGradient id="paint0_linear_18_17185" x1="19.3568" y1="2.8125" x2="16.0001" y2="29.9062" gradientUnits="userSpaceOnUse">
<stop stop-color="#4393FF"/>
<stop offset="1" stop-color="#4E71FF"/>
</linearGradient>
<radialGradient id="paint1_radial_18_17185" cx="0" cy="0" r="1" gradientUnits="userSpaceOnUse" gradientTransform="translate(21.3879 21.4688) rotate(-115.362) scale(10.6516 7.60056)">
<stop stop-color="#3B4DD8"/>
<stop offset="1" stop-color="#3B4DD8" stop-opacity="0"/>
</radialGradient>
<radialGradient id="paint2_radial_18_17185" cx="0" cy="0" r="1" gradientUnits="userSpaceOnUse" gradientTransform="translate(13.7942 5.59375) rotate(98.7937) scale(5.72353 4.08407)">
<stop offset="0.0670144" stop-color="#3B4DD8"/>
<stop offset="1" stop-color="#3B4DD8" stop-opacity="0"/>
</radialGradient>
<radialGradient id="paint3_radial_18_17185" cx="0" cy="0" r="1" gradientUnits="userSpaceOnUse" gradientTransform="translate(11.9817 22.5937) rotate(-89.6311) scale(14.5628 10.3914)">
<stop stop-color="#3B4DD8"/>
<stop offset="1" stop-color="#3B4DD8" stop-opacity="0"/>
</radialGradient>
<radialGradient id="paint4_radial_18_17185" cx="0" cy="0" r="1" gradientUnits="userSpaceOnUse" gradientTransform="translate(19.6379 9.34375) rotate(125.707) scale(3.69451 11.3555)">
<stop offset="0.180511" stop-color="#FFDF63"/>
<stop offset="1" stop-color="#FFDF63" stop-opacity="0"/>
</radialGradient>
</defs>
</svg>

<svg width="32" height="32" fill="none" xmlns="http://www.w3.org/2000/svg"><g filter="url(#a)"><path fill-rule="evenodd" clip-rule="evenodd" d="M12.075 2.687c3.641-1.695 7.61.172 9.641 3.72.86 1.327 2.735 8.088 2.735 16.5a7 7 0 1 1-14 0c0-3.083-.019-3.836-.391-5.36-.38-1.554-1.633-4.016-1.992-5.36-1.336-4.03-.12-7.786 4.008-9.5Z" fill="url(#b)"/></g><g filter="url(#c)"><path d="M14.004 7.041a.897.897 0 0 0-1.219-.444c-.454.228-.645.795-.426 1.268l.725 1.569a.534.534 0 0 1-.11.596c-1.838 1.842-2.244 3.97-2.305 6.095-.07 2.417.381 4.805 1.081 6.255a.896.896 0 0 0 1.226.422.968.968 0 0 0 .405-1.276c-.606-1.253-1.222-3.21-1.164-5.226.05-1.755.664-3.527 2.21-4.997a.788.788 0 0 1 .787-.19c.95.308 2.126 1.006 3.137 2.23 1.285 1.557 2.247 3.964 1.806 7.488-.065.52.287.997.787 1.064.5.068.958-.299 1.023-.82.505-4.038-.597-6.99-2.232-8.97-1.293-1.565-3.017-2.597-4.317-2.963a1.103 1.103 0 0 1-.715-.587l-.7-1.514Z" fill="url(#d)"/><path d="M14.004 7.041a.897.897 0 0 0-1.219-.444c-.454.228-.645.795-.426 1.268l.725 1.569a.534.534 0 0 1-.11.596c-1.838 1.842-2.244 3.97-2.305 6.095-.07 2.417.381 4.805 1.081 6.255a.896.896 0 0 0 1.226.422.968.968 0 0 0 .405-1.276c-.606-1.253-1.222-3.21-1.164-5.226.05-1.755.664-3.527 2.21-4.997a.788.788 0 0 1 .787-.19c.95.308 2.126 1.006 3.137 2.23 1.285 1.557 2.247 3.964 1.806 7.488-.065.52.287.997.787 1.064.5.068.958-.299 1.023-.82.505-4.038-.597-6.99-2.232-8.97-1.293-1.565-3.017-2.597-4.317-2.963a1.103 1.103 0 0 1-.715-.587l-.7-1.514Z" fill="url(#e)"/><path d="M14.004 7.041a.897.897 0 0 0-1.219-.444c-.454.228-.645.795-.426 1.268l.725 1.569a.534.534 0 0 1-.11.596c-1.838 1.842-2.244 3.97-2.305 6.095-.07 2.417.381 4.805 1.081 6.255a.896.896 0 0 0 1.226.422.968.968 0 0 0 .405-1.276c-.606-1.253-1.222-3.21-1.164-5.226.05-1.755.664-3.527 2.21-4.997a.788.788 0 0 1 .787-.19c.95.308 2.126 1.006 3.137 2.23 1.285 1.557 2.247 3.964 1.806 7.488-.065.52.287.997.787 1.064.5.068.958-.299 1.023-.82.505-4.038-.597-6.99-2.232-8.97-1.293-1.565-3.017-2.597-4.317-2.963a1.103 1.103 0 0 1-.715-.587l-.7-1.514Z" fill="url(#f)"/></g><g filter="url(#g)"><path d="M14.338 6.479a.95.95 0 0 0-1.712.824l.755 1.568a.518.518 0 0 1-.114.596c-1.914 1.842-2.624 4.088-2.688 6.213-.072 2.417.684 4.688 1.413 6.137a.95.95 0 1 0 1.698-.853c-.63-1.254-1.272-3.21-1.212-5.227.053-1.754.691-3.526 2.3-4.996a.844.844 0 0 1 .82-.191c.989.309 2.212 1.007 3.265 2.231 1.337 1.556 2.338 3.964 1.88 7.487a.95.95 0 0 0 1.884.245c.526-4.039-.622-6.99-2.323-8.97-1.346-1.565-3.14-2.598-4.494-2.964-.32-.086-.601-.288-.744-.586l-.728-1.514Z" fill="#FCCB47"/></g><g filter="url(#h)"><path d="m13.763 6.938.931 1.762c.142.268.399.454.693.53 3.104.812 7.336 4.053 6.563 10.801" stroke="url(#i)" stroke-width=".75" stroke-linecap="round"/></g><defs><radialGradient id="d" cx="0" cy="0" r="1" gradientUnits="userSpaceOnUse" gradientTransform="matrix(-4.56246 -9.625 6.86801 -3.2556 21.388 21.469)"><stop stop-color="#3B4DD8"/><stop offset="1" stop-color="#3B4DD8" stop-opacity="0"/></radialGradient><radialGradient id="e" cx="0" cy="0" r="1" gradientUnits="userSpaceOnUse" gradientTransform="matrix(-.875 5.65625 -4.03606 -.62436 13.794 5.594)"><stop offset=".067" stop-color="#3B4DD8"/><stop offset="1" stop-color="#3B4DD8" stop-opacity="0"/></radialGradient><radialGradient id="f" cx="0" cy="0" r="1" gradientUnits="userSpaceOnUse" gradientTransform="rotate(-89.631 17.36 5.267) scale(14.5628 10.3914)"><stop stop-color="#3B4DD8"/><stop offset="1" stop-color="#3B4DD8" stop-opacity="0"/></radialGradient><radialGradient id="i" cx="0" cy="0" r="1" gradientUnits="userSpaceOnUse" gradientTransform="matrix(-2.15627 2.99999 -9.2208 -6.62753 19.638 9.344)"><stop offset=".181" stop-color="#FFDF63"/><stop offset="1" stop-color="#FFDF63" stop-opacity="0"/></radialGradient><filter id="a" x="7.05" y="1.554" width="17.901" height="28.852" filterUnits="userSpaceOnUse" color-interpolation-filters="sRGB"><feFlood flood-opacity="0" result="BackgroundImageFix"/><feBlend in="SourceGraphic" in2="BackgroundImageFix" result="shape"/><feColorMatrix in="SourceAlpha" values="0 0 0 0 0 0 0 0 0 0 0 0 0 0 0 0 0 0 127 0" result="hardAlpha"/><feOffset dx=".5" dy="-.5"/><feGaussianBlur stdDeviation=".5"/><feComposite in2="hardAlpha" operator="arithmetic" k2="-1" k3="1"/><feColorMatrix values="0 0 0 0 0.352941 0 0 0 0 0.301961 0 0 0 0 1 0 0 0 1 0"/><feBlend in2="shape" result="effect1_innerShadow_18_17185"/><feColorMatrix in="SourceAlpha" values="0 0 0 0 0 0 0 0 0 0 0 0 0 0 0 0 0 0 127 0" result="hardAlpha"/><feOffset dx=".5" dy=".5"/><feGaussianBlur stdDeviation=".5"/><feComposite in2="hardAlpha" operator="arithmetic" k2="-1" k3="1"/><feColorMatrix values="0 0 0 0 0.286275 0 0 0 0 0.403922 0 0 0 0 0.764706 0 0 0 1 0"/><feBlend in2="effect1_innerShadow_18_17185" result="effect2_innerShadow_18_17185"/><feColorMatrix in="SourceAlpha" values="0 0 0 0 0 0 0 0 0 0 0 0 0 0 0 0 0 0 127 0" result="hardAlpha"/><feOffset dx="-.5" dy=".5"/><feGaussianBlur stdDeviation=".375"/><feComposite in2="hardAlpha" operator="arithmetic" k2="-1" k3="1"/><feColorMatrix values="0 0 0 0 0.423529 0 0 0 0 0.717647 0 0 0 0 1 0 0 0 1 0"/><feBlend in2="effect2_innerShadow_18_17185" result="effect3_innerShadow_18_17185"/></filter><filter id="c" x="9.662" y="5.503" width="13.428" height="18.4" filterUnits="userSpaceOnUse" color-interpolation-filters="sRGB"><feFlood flood-opacity="0" result="BackgroundImageFix"/><feBlend in="SourceGraphic" in2="BackgroundImageFix" result="shape"/><feGaussianBlur stdDeviation=".5" result="effect1_foregroundBlur_18_17185"/></filter><filter id="g" x="10.574" y="5.54" width="12.581" height="16.8" filterUnits="userSpaceOnUse" color-interpolation-filters="sRGB"><feFlood flood-opacity="0" result="BackgroundImageFix"/><feBlend in="SourceGraphic" in2="BackgroundImageFix" result="shape"/><feColorMatrix in="SourceAlpha" values="0 0 0 0 0 0 0 0 0 0 0 0 0 0 0 0 0 0 127 0" result="hardAlpha"/><feOffset dx=".4" dy="-.4"/><feGaussianBlur stdDeviation=".5"/><feComposite in2="hardAlpha" operator="arithmetic" k2="-1" k3="1"/><feColorMatrix values="0 0 0 0 0.941176 0 0 0 0 0.556863 0 0 0 0 0.341176 0 0 0 1 0"/><feBlend in2="shape" result="effect1_innerShadow_18_17185"/></filter><filter id="h" x="12.888" y="6.062" width="10.03" height="14.844" filterUnits="userSpaceOnUse" color-interpolation-filters="sRGB"><feFlood flood-opacity="0" result="BackgroundImageFix"/><feBlend in="SourceGraphic" in2="BackgroundImageFix" result="shape"/><feGaussianBlur stdDeviation=".25" result="effect1_foregroundBlur_18_17185"/></filter><linearGradient id="b" x1="19.357" y1="2.813" x2="16" y2="29.906" gradientUnits="userSpaceOnUse"><stop stop-color="#4393FF"/><stop offset="1" stop-color="#4E71FF"/></linearGradient></defs></svg>
